src/components/Icon/svg/krOwnershipPending16.svg

<?xml version="1.0" encoding="UTF-8"?>
<svg width="16px" height="16px" viewBox="0 0 16 16" version="1.1" xmlns="http://www.w3.org/2000/svg" xmlns:xlink="http://www.w3.org/1999/xlink">
    <!-- Generator: Sketch 48.2 (47327) - http://www.bohemiancoding.com/sketch -->
    <title>Shape</title>
    <desc>Created with Sketch.</desc>
    <defs></defs>
    <g id="Page-1" stroke="none" stroke-width="1" fill="none" fill-rule="evenodd">
        <g id="kr-pending-icon-16px" fill="#000000" fill-rule="nonzero">
            <path d="M10,8.42367601 C9.8,8.22429907 9.6,8.22429907 9.4,8.12461059 C9.6,8.02492212 9.7,7.82554517 9.9,7.7258567 C10.4,7.22741433 10.6,6.62928349 10.5,5.93146417 C10.5,4.43613707 9.4,3.33956386 7.9,3.33956386 C6.4,3.33956386 5.3,4.43613707 5.3,5.93146417 C5.3,6.82866044 5.8,7.7258567 6.6,8.12461059 C6.4,8.22429907 6.2,8.32398754 6.1,8.32398754 C4.6,9.02180685 3.7,10.517134 3.7,12.1121495 L4.7,12.1121495 C4.7,10.9158879 5.4,9.81931464 6.5,9.2211838 C7.4,8.72274143 8.6,8.72274143 9.6,9.2211838 C10.7,9.71962617 11.4,10.9158879 11.4,12.0124611 L12.4,12.0124611 C12.4,10.517134 11.4,9.02180685 10,8.42367601 Z M7.9,4.3364486 C8.8,4.3364486 9.5,5.03426791 9.5,5.93146417 C9.5,6.42990654 9.3,6.72897196 9.1,6.92834891 C8.8,7.3271028 8.4,7.52647975 7.9,7.52647975 C7.1,7.52647975 6.3,6.92834891 6.3,5.93146417 C6.3,5.03426791 7,4.3364486 7.9,4.3364486 Z M6.6,14.9034268 L6.4,15.9003115 C6.9,15.9003115 7.5,16 8,16 C8.5,16 9.1,15.9003115 9.6,15.8006231 L9.4,14.8037383 C8.5,15.0031153 7.5,15.0031153 6.6,14.9034268 Z M9.4,1.14641745 L9.6,0.14953271 C8.6,-0.0498442368 7.4,-0.0498442368 6.4,0.14953271 L6.6,1.14641745 C7.5,1.04672897 8.5,1.04672897 9.4,1.14641745 Z M0.2,6.42990654 C0.1,6.92834891 0,7.52647975 0,8.02492212 C0,8.52336449 0.1,9.12149533 0.2,9.61993769 L1.2,9.42056075 C1,8.92211838 1,8.52336449 1,8.02492212 C1,7.52647975 1,7.12772586 1.1,6.62928349 L0.2,6.42990654 Z M15.8,6.42990654 L14.8,6.62928349 C15,7.02803738 15,7.52647975 15,8.02492212 C15,8.52336449 15,8.92211838 14.9,9.42056075 L15.9,9.61993769 C15.9,9.12149533 16,8.52336449 16,8.02492212 C16,7.42679128 15.9,6.92834891 15.8,6.42990654 Z M2.2,11.9127726 L1.4,12.5109034 C1.7,12.9096573 2,13.4080997 2.4,13.7071651 C2.8,14.105919 3.2,14.4049844 3.6,14.7040498 L4.2,13.9065421 C3.8,13.6074766 3.4,13.3084112 3,13.0093458 C2.7,12.6105919 2.4,12.211838 2.2,11.9127726 Z M12.4,1.34579439 L11.9,2.14330218 C12.3,2.34267913 12.6,2.64174455 13,3.04049844 C13.3,3.33956386 13.6,3.73831776 13.9,4.13707165 L14.7,3.53894081 C14.4,3.14018692 14.1,2.64174455 13.7,2.34267913 C13.3,2.04361371 12.8,1.64485981 12.4,1.34579439 Z M3,3.14018692 C3.3,2.8411215 3.7,2.54205607 4.1,2.24299065 L3.6,1.34579439 C3.1,1.64485981 2.7,2.04361371 2.3,2.34267913 C2,2.74143302 1.6,3.14018692 1.3,3.63862928 L2.1,4.23676012 C2.4,3.83800623 2.7,3.43925234 3,3.14018692 Z M12.9,13.0093458 C12.6,13.3084112 12.2,13.6074766 11.8,13.9065421 L12.4,14.7040498 C12.8,14.4049844 13.3,14.105919 13.6,13.7071651 C14,13.3084112 14.3,12.9096573 14.6,12.5109034 L13.8,12.0124611 C13.6,12.211838 13.3,12.6105919 12.9,13.0093458 Z" id="Shape"></path>
        </g>
    </g>
</svg>

<?xml version="1.0" encoding="UTF-8"?>
<svg width="16px" height="16px" viewBox="0 0 16 16" version="1.1" xmlns="http://www.w3.org/2000/svg" xmlns:xlink="http://www.w3.org/1999/xlink">
    <!-- Generator: Sketch 48.2 (47327) - http://www.bohemiancoding.com/sketch -->
    <title>Shape</title>
    <desc>Created with Sketch.</desc>
    <defs></defs>
    <g id="Page-1" stroke="none" stroke-width="1" fill="none" fill-rule="evenodd">
        <g id="kr-pending-icon-16px" fill="#000000" fill-rule="nonzero">
            <path d="M10 8.4237c-.2-.1994-.4-.1994-.6-.299.2-.0998.3-.2992.5-.3988.5-.4985.7-1.0966.6-1.7944 0-1.4954-1.1-2.592-2.6-2.592s-2.6 1.0966-2.6 2.592c0 .8972.5 1.7944 1.3 2.1931-.2.0997-.4.1994-.5.1994-1.5.6978-2.4 2.1931-2.4 3.7881h1c0-1.1962.7-2.2928 1.8-2.891.9-.4984 2.1-.4984 3.1 0 1.1.4985 1.8 1.6948 1.8 2.7914h1c0-1.4954-1-2.9907-2.4-3.5888zM7.9 4.3364c.9 0 1.6.6979 1.6 1.595 0 .4985-.2.7976-.4.997-.3.3987-.7.598-1.2.598-.8 0-1.6-.598-1.6-1.595 0-.8971.7-1.595 1.6-1.595zm-1.3 10.567l-.2.997c.5 0 1.1.0996 1.6.0996s1.1-.0997 1.6-.1994l-.2-.9969c-.9.1994-1.9.1994-2.8.0997zm2.8-13.757l.2-.9969c-1-.1993-2.2-.1993-3.2 0l.2.997c.9-.0998 1.9-.0998 2.8 0zM.2 6.43C.1 6.9283 0 7.5265 0 8.025c0 .4985.1 1.0966.2 1.595l1-.1993C1 8.922 1 8.5234 1 8.0249c0-.4984 0-.8972.1-1.3956l-.9-.1994zm15.6 0l-1 .1994c.2.3987.2.8972.2 1.3956 0 .4985 0 .8972-.1 1.3957l1 .1993c0-.4984.1-1.0965.1-1.595 0-.5981-.1-1.0966-.2-1.595zM2.2 11.9128l-.8.5981c.3.3988.6.8972 1 1.1963.4.3987.8.6978 1.2.9968l.6-.7975c-.4-.299-.8-.598-1.2-.8972-.3-.3987-.6-.7975-.8-1.0965zm10.2-10.567l-.5.7975c.4.1994.7.4984 1.1.8972.3.299.6.6978.9 1.0966l.8-.5982c-.3-.3987-.6-.8972-1-1.1962-.4-.299-.9-.6978-1.3-.997zM3 3.1402c.3-.299.7-.5981 1.1-.8972l-.5-.8972c-.5.299-.9.6978-1.3.9969-.3.3987-.7.7975-1 1.296l.8.598c.3-.3987.6-.7974.9-1.0965zm9.9 9.8691c-.3.2991-.7.5982-1.1.8972l.6.7975c.4-.299.9-.598 1.2-.9968.4-.3988.7-.7975 1-1.1963l-.8-.4984c-.2.1993-.5.598-.9.9968z" id="Shape"></path>
        </g>
    </g>
</svg>
